Numix-GalliumOS/64/mimetypes/application-vnd.oasis.opendocument.formula-template.svg

<svg xmlns="http://www.w3.org/2000/svg" xmlns:xlink="http://www.w3.org/1999/xlink" width="64px" height="64px" viewBox="0 0 64 64" version="1.1">
<g id="surface1">
<path style=" stroke:none;fill-rule:nonzero;fill:rgb(47.058824%,35.294118%,54.509804%);fill-opacity:1;" d="M 10.6875 0 C 9.3125 0 8 1.378906 8 2.8125 L 8 61.1875 C 8 62.539062 9.390625 64 10.6875 64 L 53.3125 64 C 54.609375 64 56 62.539062 56 61.1875 L 56 2.75 C 56 1.402344 54.597656 0 53.25 0 Z M 10.6875 0 "/>
<path style=" stroke:none;fill-rule:nonzero;fill:rgb(0%,0%,0%);fill-opacity:0.196078;" d="M 8 48 L 8 61.335938 C 8 62.632812 9.375 64 10.664062 64 L 53.335938 64 C 54.625 64 56 62.632812 56 61.335938 L 56 48 Z M 8 48 "/>
<path style=" stroke:none;fill-rule:nonzero;fill:rgb(100%,100%,100%);fill-opacity:1;" d="M 24 22 L 24 34 L 20 34 L 24 42 L 26 42 L 26 24 C 31.90625 24 38.296875 24 44 24 L 44 22 Z M 31.238281 25.761719 L 28.410156 28.714844 L 33.367188 33.878906 L 28.410156 39.046875 L 31.238281 42 L 36.195312 36.832031 L 41.152344 42 L 43.984375 39.046875 L 39.027344 33.878906 L 43.984375 28.714844 L 41.152344 25.761719 L 36.195312 30.925781 Z M 31.238281 25.761719 "/>
<path style=" stroke:none;fill-rule:nonzero;fill:rgb(100%,100%,100%);fill-opacity:1;" d="M 20.269531 56.351562 C 20.269531 56.882812 20.285156 57.378906 20.328125 57.839844 C 20.386719 58.296875 20.476562 58.691406 20.609375 59.03125 C 20.757812 59.371094 20.957031 59.636719 21.203125 59.832031 C 21.460938 60.03125 21.800781 60.132812 22.222656 60.132812 C 22.636719 60.132812 22.964844 60.03125 23.222656 59.832031 C 23.488281 59.636719 23.683594 59.371094 23.816406 59.03125 C 23.964844 58.675781 24.058594 58.28125 24.097656 57.824219 C 24.148438 57.371094 24.179688 56.882812 24.179688 56.351562 C 24.179688 55.832031 24.148438 55.34375 24.097656 54.890625 C 24.058594 54.417969 23.964844 54.023438 23.816406 53.683594 C 23.683594 53.34375 23.496094 53.078125 23.238281 52.878906 C 22.992188 52.683594 22.652344 52.582031 22.222656 52.582031 C 21.800781 52.582031 21.460938 52.683594 21.203125 52.878906 C 20.957031 53.078125 20.757812 53.351562 20.609375 53.699219 C 20.476562 54.039062 20.386719 54.433594 20.328125 54.890625 C 20.285156 55.34375 20.269531 55.832031 20.269531 56.351562 M 17.773438 56.351562 C 17.773438 54.492188 18.171875 53.085938 18.957031 52.144531 C 19.742188 51.1875 20.824219 50.714844 22.222656 50.714844 C 23.675781 50.714844 24.777344 51.1875 25.535156 52.144531 C 26.289062 53.085938 26.667969 54.492188 26.667969 56.351562 C 26.667969 58.222656 26.289062 59.628906 25.511719 60.585938 C 24.742188 61.527344 23.652344 62 22.246094 62 C 20.792969 62 19.683594 61.527344 18.914062 60.585938 C 18.152344 59.628906 17.773438 58.222656 17.773438 56.351562 "/>
<path style=" stroke:none;fill-rule:nonzero;fill:rgb(100%,100%,100%);fill-opacity:1;" d="M 36.683594 50.953125 L 36.683594 52.738281 L 33.433594 52.738281 L 33.433594 61.769531 L 30.960938 61.769531 L 30.960938 52.738281 L 27.710938 52.738281 L 27.710938 50.953125 L 36.683594 50.953125 "/>
<path style=" stroke:none;fill-rule:nonzero;fill:rgb(100%,100%,100%);fill-opacity:1;" d="M 38.433594 61.769531 L 38.433594 50.953125 L 46 50.953125 L 46 52.738281 L 40.890625 52.738281 L 40.890625 55.359375 L 45.355469 55.359375 L 45.355469 57.136719 L 40.890625 57.136719 L 40.890625 61.769531 L 38.433594 61.769531 "/>
</g>
</svg>

<svg xmlns="http://www.w3.org/2000/svg" viewBox="0 0 64 64">
 <g>
  <path d="m 10.688 0 c -1.375 0 -2.688 1.379 -2.688 2.813 l 0 58.38 c 0 1.352 1.391 2.813 2.688 2.813 l 42.625 0 c 1.297 0 2.688 -1.461 2.688 -2.813 l 0 -58.44 c 0 -1.348 -1.402 -2.75 -2.75 -2.75 m -42.563 0" style="fill:#785a8b;fill-opacity:1;stroke:none;fill-rule:nonzero"/>
  <path d="m 8 48 l 0 13.336 c 0 1.297 1.375 2.664 2.664 2.664 l 42.672 0 c 1.289 0 2.664 -1.367 2.664 -2.664 l 0 -13.336 m -48 0" style="fill:#000;fill-opacity:0.196;stroke:none;fill-rule:nonzero"/>
  <path d="m 24 22 l 0 12 l -4 0 l 4 8 l 2 0 l 0 -18 c 5.906 0 12.297 0 18 0 l 0 -2 m -12.762 3.762 l -2.828 2.953 l 4.957 5.164 l -4.957 5.168 l 2.828 2.953 l 4.957 -5.168 l 4.957 5.168 l 2.832 -2.953 l -4.957 -5.168 l 4.957 -5.164 l -2.832 -2.953 l -4.957 5.164 m -4.957 -5.164" style="fill:#fff;fill-opacity:1;stroke:none;fill-rule:nonzero"/>
  <path d="m 20.27 56.35 c 0 0.531 0.016 1.027 0.059 1.488 c 0.059 0.457 0.148 0.852 0.281 1.191 c 0.148 0.34 0.348 0.605 0.594 0.801 c 0.258 0.199 0.598 0.301 1.02 0.301 c 0.414 0 0.742 -0.102 1 -0.301 c 0.266 -0.195 0.461 -0.461 0.594 -0.801 c 0.148 -0.355 0.242 -0.75 0.281 -1.207 c 0.051 -0.453 0.082 -0.941 0.082 -1.473 c 0 -0.52 -0.031 -1.01 -0.082 -1.461 c -0.039 -0.473 -0.133 -0.867 -0.281 -1.207 c -0.133 -0.34 -0.32 -0.605 -0.578 -0.805 c -0.246 -0.195 -0.586 -0.297 -1.016 -0.297 c -0.422 0 -0.762 0.102 -1.02 0.297 c -0.246 0.199 -0.445 0.473 -0.594 0.82 c -0.133 0.34 -0.223 0.734 -0.281 1.191 c -0.043 0.453 -0.059 0.941 -0.059 1.461 m -2.496 0 c 0 -1.859 0.398 -3.266 1.184 -4.207 c 0.785 -0.957 1.867 -1.43 3.266 -1.43 c 1.453 0 2.555 0.473 3.313 1.43 c 0.754 0.941 1.133 2.348 1.133 4.207 c 0 1.871 -0.379 3.277 -1.156 4.234 c -0.77 0.941 -1.859 1.414 -3.266 1.414 c -1.453 0 -2.563 -0.473 -3.332 -1.414 c -0.762 -0.957 -1.141 -2.363 -1.141 -4.234" style="fill:#fff;fill-opacity:1;stroke:none;fill-rule:nonzero"/>
  <path d="m 36.684 50.953 l 0 1.785 l -3.25 0 l 0 9.03 l -2.473 0 l 0 -9.03 l -3.25 0 l 0 -1.785 l 8.973 0" style="fill:#fff;fill-opacity:1;stroke:none;fill-rule:nonzero"/>
  <path d="m 38.434 61.77 l 0 -10.816 l 7.566 0 l 0 1.785 l -5.109 0 l 0 2.621 l 4.465 0 l 0 1.777 l -4.465 0 l 0 4.633 l -2.457 0" style="fill:#fff;fill-opacity:1;stroke:none;fill-rule:nonzero"/>
 </g>
</svg>
